nord_icons/symbolic/actions/value-increase-symbolic.svg

<?xml version="1.0" encoding="UTF-8"?>
<svg height="16px" viewBox="0 0 16 16" width="16px" xmlns="http://www.w3.org/2000/svg">
    <path d="m 7 3 v 4 h -4 v 2 h 4 v 4 h 2 v -4 h 4 v -2 h -4 v -4 z m 0 0" fill="#2e3436"/>
</svg>

<svg xmlns="http://www.w3.org/2000/svg" width="16" height="16" version="1.1">
 <path style="fill:#9aa2af" d="M 7 3 L 7 7 L 3 7 L 3 9 L 7 9 L 7 13 L 9 13 L 9 9 L 13 9 L 13 7 L 9 7 L 9 3 L 7 3 z"/>
</svg>
